X:1
T:Lesson 6 - Ode to Joy (Ninth Symphony Theme)
M:C
K:A
L:1/8
vc2 c2 d2 e2|e2 d2 c2 B2|A2 A2 B2 c2|c3 B B4|
uc2 c2 d2 e2|e2 d2 c2 B2|A2 A2 B2 c2|B3 A A4|
vB2 B2 c2 A2|B2 cd c2 A2|B2 cd c2 B2|A2 B2 E4|
uc2 c2 d2 e2|e2 d2 c2 B2|A2 A2 B2 c2|B3 A A4|]
